X: 36405
T: Sean Tiobrad Arann
R: jig
M: 6/8
K: Gmajor
dcA GFG|AGF G2 d|dcA GFG|Ade f2 e|
dcA GFG|AGF G2 g|fdd edd|1 fdd cAd:|2 fdd cAF||
GBd g3|gaf g3|dgg gfg|a2 g fga|
bag agf|gfe f2 e|dcA d2 e|fed cAd:|

